src/components/icon/google.svg

<svg id="Capa_1" enable-background="new 0 0 512 512" height="512" viewBox="0 0 512 512" width="512" xmlns="http://www.w3.org/2000/svg"><g><path d="m147.682 173.862c24.86-32.704 64.162-53.862 108.318-53.862 36.326 0 70.479 14.146 96.167 39.833l10.606 10.606 84.853-84.852-10.606-10.606c-48.352-48.352-112.639-74.981-181.02-74.981-68.38 0-132.667 26.629-181.02 74.98-4.389 4.39-8.594 8.914-12.622 13.557z"/><path d="m423.462 449.642c4.643-4.028 9.168-8.233 13.558-12.622 48.351-48.353 74.98-112.64 74.98-181.02 0-15.575-1.41-31.179-4.192-46.377l-2.251-12.299h-264.557v120h136.452c-9.437 18.773-22.936 34.779-39.199 47.109z"/><path d="m311.602 380.208c-17.091 7.623-35.947 11.792-55.602 11.792-44.156 0-83.458-21.158-108.318-53.862l-85.324 85.324c4.028 4.643 8.233 9.168 12.622 13.557 48.353 48.352 112.64 74.981 181.02 74.981 51.916 0 101.464-15.363 143.479-43.915z"/><path d="m131.863 311.531c-7.619-16.965-11.863-35.761-11.863-55.531s4.244-38.566 11.863-55.531l-87.948-87.948c-28.552 42.015-43.915 91.563-43.915 143.479s15.363 101.464 43.915 143.479z"/></g></svg>

<?xml version="1.0" encoding="UTF-8" standalone="no"?>
<!DOCTYPE svg PUBLIC "-//W3C//DTD SVG 1.1//EN" "http://www.w3.org/Graphics/SVG/1.1/DTD/svg11.dtd">
<svg width="100%" height="100%" viewBox="0 0 512 512" version="1.1" xmlns="http://www.w3.org/2000/svg" xmlns:xlink="http://www.w3.org/1999/xlink" xml:space="preserve" xmlns:serif="http://www.serif.com/" style="fill-rule:evenodd;clip-rule:evenodd;stroke-linejoin:round;stroke-miterlimit:2;">
    <g>
        <path d="M147.682,173.862C172.542,141.158 211.844,120 256,120C292.326,120 326.479,134.146 352.167,159.833L362.773,170.439L447.626,85.587L437.02,74.981C388.668,26.629 324.381,0 256,0C187.62,0 123.333,26.629 74.98,74.98C70.591,79.37 66.386,83.894 62.358,88.537L147.682,173.862Z" style="fill:rgb(27,13,78);fill-rule:nonzero;"/>
        <path d="M423.462,449.642C428.105,445.614 432.63,441.409 437.02,437.02C485.371,388.667 512,324.38 512,256C512,240.425 510.59,224.821 507.808,209.623L505.557,197.324L241,197.324L241,317.324L377.452,317.324C368.015,336.097 354.516,352.103 338.253,364.433L423.462,449.642Z" style="fill:rgb(27,13,78);fill-rule:nonzero;"/>
        <path d="M311.602,380.208C294.511,387.831 275.655,392 256,392C211.844,392 172.542,370.842 147.682,338.138L62.358,423.462C66.386,428.105 70.591,432.63 74.98,437.019C123.333,485.371 187.62,512 256,512C307.916,512 357.464,496.637 399.479,468.085L311.602,380.208Z" style="fill:rgb(27,13,78);fill-rule:nonzero;"/>
        <path d="M131.863,311.531C124.244,294.566 120,275.77 120,256C120,236.23 124.244,217.434 131.863,200.469L43.915,112.521C15.363,154.536 0,204.084 0,256C0,307.916 15.363,357.464 43.915,399.479L131.863,311.531Z" style="fill:rgb(27,13,78);fill-rule:nonzero;"/>
    </g>
</svg>
